X:228 
T:Wise Maid (reel), The 
T:All Around the World
B:CRE3.158 (Gearrchaile Chrionna)
F:file ID: cre.3/228wise
N:CRE has this tune as ABB but I've never heard it played 
that way, so the version below is the usual AABB.
R:reel
L:1/8
Q:180
M:C
K:D
F2EF FEDE|FAAB AFED|d2eg fdec|dBAF BEEG|
F2EF FEDE|FAAB AFED|d2eg fdec|dBAG FDDE:|
d2AG FDFA|dfaf gfef|f/a/f df e2ce|dfed cAdA|
B2GB ADFA|dfaf gfec|dfec dcAG|FAEF D4:|

%%%

